packages/ui-icons/svg/Line/audio-off.svg

<svg viewBox="0 0 1920 1920" version="1.1" xmlns="http://www.w3.org/2000/svg">
    <path d="M1129.4317,113 L1129.4317,1807.14754 L936.637705,1807.14754 L484.865027,1355.37487 L169.414754,1355.37487 C76.9447931,1355.37487 1.52195439,1280.87673 0.0227446084,1188.75695 L-4.54747351e-13,1185.96011 L-4.54747351e-13,734.187433 C-4.54747351e-13,641.717471 74.4981391,566.294633 166.617911,564.795423 L169.414754,564.772678 L484.865027,564.772678 L936.637705,113 L1129.4317,113 Z M1016.48853,225.94317 L983.396178,225.94317 L564.715848,644.623499 L564.715848,1275.52404 L983.396178,1694.20437 L1016.48853,1694.20437 L1016.48853,225.94317 Z M1840.15059,637.722353 L1920,717.571765 L1677.62824,959.943529 L1920,1202.42824 L1840.15059,1282.27765 L1597.66588,1039.90588 L1355.29412,1282.27765 L1275.44471,1202.42824 L1517.81647,959.943529 L1275.44471,717.571765 L1355.29412,637.722353 L1597.66588,880.094118 L1840.15059,637.722353 Z M451.772678,677.715848 L169.414754,677.715848 C138.665976,677.715848 113.451979,702.511662 112.950773,733.254045 L112.94317,734.187433 L112.94317,1185.96011 C112.94317,1216.8207 137.84968,1241.92512 168.484687,1242.42413 L169.414754,1242.4317 L451.772678,1242.4317 L451.772678,677.715848 Z" stroke="none" stroke-width="1" fill-rule="evenodd"/>
</svg>

<svg viewBox="0 0 1920 1920" xmlns="http://www.w3.org/2000/svg">
    <path d="M1129.432 113v1694.148H936.638l-451.773-451.773h-315.45c-92.47 0-167.893-74.498-169.392-166.618L0 1185.96V734.187c0-92.47 74.498-167.892 166.618-169.392l2.797-.022h315.45L936.638 113h192.794Zm-112.943 112.943h-33.093l-418.68 418.68v630.901l418.68 418.68h33.093V225.944Zm823.662 411.78L1920 717.571l-242.372 242.372L1920 1202.428l-79.85 79.85-242.484-242.372-242.372 242.372-79.85-79.85 242.372-242.484-242.371-242.372 79.85-79.85 242.37 242.372 242.486-242.372ZM451.773 677.715H169.415c-30.749 0-55.963 24.796-56.464 55.538l-.008.933v451.773c0 30.86 24.907 55.965 55.542 56.464l.93.008h282.358V677.716Z" fill-rule="evenodd"/>
</svg>
